!!!OTL: Het waren twe konigs kinderen
!!!ARE: Europa, Mitteleuropa, Deutschland
!!!SCT: L0085
!!!YEM: Copyright 1995, estate of Helmut Schaffrath.
**kern
*ICvox
*Ivox
*M3/4
*k[f#]
*G:
{4d
=1
4g
4b
4cc
=2
2dd
4ee
=3
8dd
8cc
4b}
{4dd
=4
4dd
4cc
4b
=5
4a
4b
4cc
=6
2b}
{4d
=7
4g
4b
4cc
=8
2dd
4ee
=9
8dd
8cc
4b}
{4dd
=10
4dd
4cc
4b
=11
4a
4b
4cc
=12
2.b}
=13
{2.a
=14
4dd
4cc
4b
=15
4a
4b
4a
=16
4g
4d}
{4g
=17
4g
4a
4b
=18
4cc
4b
4a
=19
2b
4r}
=20
{2.a
=21
4dd
4cc
4b
=22
4a
4b
4a
=23
4g
4d}
{4g
=24
4g
4a
4b
=25
4cc
4b
4a
=26
2g}
==
!!!AGN: Lied
!! Coussemaker Nr. 49
!!!ONB: ESAC (Essen Associative Code) Database: ERK5
!!!AMT: simple triple
!!!AIN: vox
!!!EED: Helmut Schaffrath
!!!EEV: 1.0
*-
